X:94
T:Waltz
O:No 94 Wm Clarke MS  Feltwell, Norfolk
N:Qvr rest shown at end of each strain
N:Bar 10 crotchets written as qvrs in MS (as bar 14)
I:abc2nwc
M:3/4
L:1/8
K:F
c2|c3e gb|ac' ba gf|eg fe dc|fe fa c2|
c3e gb|ac' ba gf|eg fe dc|f2z2:|
|:c2|ca"^*"f2c2|cb g2c2|cd ef ge|ac' ba gf|
ca f2c2|cb g2c2|cd ef ge|f4:|


